poi/svg/2418.svg

<?xml version="1.0" encoding="UTF-8" standalone="no"?>
<svg
   xmlns:dc="http://purl.org/dc/elements/1.1/"
   xmlns:cc="http://creativecommons.org/ns#"
   xmlns:rdf="http://www.w3.org/1999/02/22-rdf-syntax-ns#"
   xmlns:svg="http://www.w3.org/2000/svg"
   xmlns="http://www.w3.org/2000/svg"
   xmlns:sodipodi="http://sodipodi.sourceforge.net/DTD/sodipodi-0.dtd"
   xmlns:inkscape="http://www.inkscape.org/namespaces/inkscape"
   inkscape:version="1.0 (4035a4fb49, 2020-05-01)"
   sodipodi:docname="2418.svg"
   id="svg20"
   version="1.2"
   viewBox="0 0 42.519639 42.519639"
   height="14.999999mm"
   width="14.999999mm">
  <metadata
     id="metadata24">
    <rdf:RDF>
      <cc:Work
         rdf:about="">
        <dc:format>image/svg+xml</dc:format>
        <dc:type
           rdf:resource="http://purl.org/dc/dcmitype/StillImage" />
        <dc:title>Qt SVG Document</dc:title>
      </cc:Work>
    </rdf:RDF>
  </metadata>
  <sodipodi:namedview
     inkscape:current-layer="svg20"
     inkscape:window-maximized="0"
     inkscape:window-y="0"
     inkscape:window-x="0"
     inkscape:cy="28.346482"
     inkscape:cx="28.346482"
     inkscape:zoom="5.8410537"
     showgrid="false"
     id="namedview22"
     inkscape:window-height="480"
     inkscape:window-width="1034"
     inkscape:pageshadow="2"
     inkscape:pageopacity="0"
     guidetolerance="10"
     gridtolerance="10"
     objecttolerance="10"
     borderopacity="1"
     bordercolor="#666666"
     pagecolor="#ffffff" />
  <title
     id="title2">Qt SVG Document</title>
  <desc
     id="desc4">Generated with Qt</desc>
  <defs
     id="defs6" />
  <g
     transform="translate(5.25984,5.25984)"
     id="g18"
     stroke-linejoin="bevel"
     stroke-linecap="square"
     fill-rule="evenodd"
     stroke-width="1"
     stroke="#000000"
     fill="none">
    <g
       id="g10"
       font-style="normal"
       font-weight="400"
       font-size="7.8px"
       font-family="'MS Shell Dlg 2'"
       stroke="none"
       fill-opacity="1"
       fill="#ec1d24">
      <path
         id="path8"
         d="M 37.2598,16 C 37.2598,27.7415 27.7415,37.2598 16,37.2598 4.25851,37.2598 -5.25984,27.7415 -5.25984,16 -5.25984,4.25851 4.25851,-5.25984 16,-5.25984 27.7415,-5.25984 37.2598,4.25851 37.2598,16"
         fill-rule="evenodd"
         vector-effect="non-scaling-stroke" />
    </g>
    <g
       id="g14"
       font-style="normal"
       font-weight="400"
       font-size="7.8px"
       font-family="'MS Shell Dlg 2'"
       transform="translate(16.5669,10.8976)"
       stroke="none"
       fill-opacity="1"
       fill="#ffffff">
      <path
         id="path12"
         d="m -5.7793,-8.9917 h 9.12354 v 2.5835 H -4.06299 C -4.34001,-6.8418 -4.62606,-7.26636 -4.92114,-7.68188 -5.21623,-8.09741 -5.50228,-8.53402 -5.7793,-8.9917 m 1.82471,3.36035 h 7.33496 v 1.93311 c 0,0.46972 -0.10238,0.92741 -0.30713,1.37304 -0.20475,0.44564 -0.48779,0.82504 -0.84912,1.13819 -0.43359,0.373371 -0.92139,0.638345 -1.463378,0.79492 -0.541992,0.156576 -1.083984,0.16862 -1.625976,0.036133 C -1.38314,-0.452311 -1.85889,-0.660075 -2.29248,-0.979248 -2.72607,-1.29842 -3.06331,-1.69287 -3.3042,-2.1626 -3.4126,-2.42757 -3.50293,-2.68953 -3.5752,-2.94849 -3.64746,-3.20744 -3.68359,-3.48145 -3.68359,-3.77051 h -1.73438 c 0.24089,-0.3011 0.48177,-0.60221 0.72266,-0.90332 0.24088,-0.3011 0.48779,-0.62028 0.74072,-0.95752 M 2.53125,0.962891 C 1.79655,0.950846 1.07389,0.944824 0.363281,0.944824 c -0.602213,0 -1.249593,0 -1.942141,0 -0.69254,0 -1.30981,0.006022 -1.8518,0.018067 -0.28907,0 -0.60222,0.057209 -0.93946,0.171629 -0.33724,0.11442 -0.63834,0.32219 -0.90332,0.62329 -0.15657,0.18067 -0.274,0.37337 -0.35229,0.57813 -0.07829,0.20475 -0.13249,0.40348 -0.1626,0.59619 -0.03011,0.19271 -0.04517,0.37337 -0.04517,0.54199 0,0.16862 0.00603,0.30713 0.01807,0.41553 0.02409,0.92741 0.03613,2.0686 0.03613,3.42358 0,1.35498 -0.01204,2.94177 -0.03613,4.76047 0.33724,-0.4577 0.71965,-0.9695 1.14722,-1.5356 C -4.24064,9.97201 -3.80103,9.38485 -3.34937,8.77661 -2.89771,8.16838 -2.43701,7.55412 -1.96729,6.93384 -1.49756,6.31356 -1.0459,5.71436 -0.612305,5.13623 0.399414,3.77523 1.44727,2.38411 2.53125,0.962891 M -5.81543,14.1694 v 3.8843 H -5.7793 7.01172 V 3.88965 C 7.01172,3.50423 6.9786,3.12785 6.91235,2.7605 6.84611,2.39315 6.69857,2.05892 6.46973,1.75781 6.25293,1.49284 5.97892,1.30013 5.64771,1.17969 5.31649,1.05924 4.97624,0.986979 4.62695,0.962891 3.20573,2.86589 1.79053,4.76587 0.381348,6.66284 -1.02783,8.55981 -2.44303,10.4538 -3.86426,12.3447 h 7.3711 v 1.8247 h -9.32227"
         fill-rule="evenodd"
         vector-effect="none" />
    </g>
    <g
       id="g16"
       font-style="normal"
       font-weight="400"
       font-size="7.8px"
       font-family="'MS Shell Dlg 2'"
       stroke="none"
       fill-opacity="1"
       fill="#ec1d24" />
  </g>
</svg>

<?xml version="1.0" encoding="UTF-8" standalone="no"?>
<svg width="11.2889mm" height="11.2889mm"
 viewBox="0 0 32 32"
 xmlns="http://www.w3.org/2000/svg" xmlns:xlink="http://www.w3.org/1999/xlink"  version="1.2" baseProfile="tiny">
<title>Qt SVG Document</title>
<desc>Generated with Qt</desc>
<defs>
</defs>
<g fill="none" stroke="black" stroke-width="1" fill-rule="evenodd" stroke-linecap="square" stroke-linejoin="bevel" >

<g fill="#ec1d24" fill-opacity="1" stroke="none" transform="matrix(1,0,0,1,0,0)"
font-family="MS Shell Dlg 2" font-size="7.8" font-weight="400" font-style="normal" 
>
<path vector-effect="non-scaling-stroke" fill-rule="evenodd" d="M37.2598,16 C37.2598,27.7415 27.7415,37.2598 16,37.2598 C4.25851,37.2598 -5.25984,27.7415 -5.25984,16 C-5.25984,4.25851 4.25851,-5.25984 16,-5.25984 C27.7415,-5.25984 37.2598,4.25851 37.2598,16 "/>
</g>

<g fill="#ffffff" fill-opacity="1" stroke="none" transform="matrix(1,0,0,1,16.5669,10.8976)"
font-family="MS Shell Dlg 2" font-size="7.8" font-weight="400" font-style="normal" 
>
<path vector-effect="none" fill-rule="evenodd" d="M-5.7793,-8.9917 L3.34424,-8.9917 L3.34424,-6.4082 L-4.06299,-6.4082 C-4.34001,-6.8418 -4.62606,-7.26636 -4.92114,-7.68188 C-5.21623,-8.09741 -5.50228,-8.53402 -5.7793,-8.9917 M-3.95459,-5.63135 L3.38037,-5.63135 L3.38037,-3.69824 C3.38037,-3.22852 3.27799,-2.77083 3.07324,-2.3252 C2.86849,-1.87956 2.58545,-1.50016 2.22412,-1.18701 C1.79053,-0.813639 1.30273,-0.548665 0.760742,-0.39209 C0.21875,-0.235514 -0.323242,-0.22347 -0.865234,-0.355957 C-1.38314,-0.452311 -1.85889,-0.660075 -2.29248,-0.979248 C-2.72607,-1.29842 -3.06331,-1.69287 -3.3042,-2.1626 C-3.4126,-2.42757 -3.50293,-2.68953 -3.5752,-2.94849 C-3.64746,-3.20744 -3.68359,-3.48145 -3.68359,-3.77051 L-5.41797,-3.77051 C-5.17708,-4.07161 -4.9362,-4.37272 -4.69531,-4.67383 C-4.45443,-4.97493 -4.20752,-5.29411 -3.95459,-5.63135 M2.53125,0.962891 C1.79655,0.950846 1.07389,0.944824 0.363281,0.944824 C-0.238932,0.944824 -0.886312,0.944824 -1.57886,0.944824 C-2.2714,0.944824 -2.88867,0.950846 -3.43066,0.962891 C-3.71973,0.962891 -4.03288,1.0201 -4.37012,1.13452 C-4.70736,1.24894 -5.00846,1.45671 -5.27344,1.75781 C-5.43001,1.93848 -5.54744,2.13118 -5.62573,2.33594 C-5.70402,2.54069 -5.75822,2.73942 -5.78833,2.93213 C-5.81844,3.12484 -5.8335,3.3055 -5.8335,3.47412 C-5.8335,3.64274 -5.82747,3.78125 -5.81543,3.88965 C-5.79134,4.81706 -5.7793,5.95825 -5.7793,7.31323 C-5.7793,8.66821 -5.79134,10.255 -5.81543,12.0737 C-5.47819,11.616 -5.09578,11.1042 -4.66821,10.5381 C-4.24064,9.97201 -3.80103,9.38485 -3.34937,8.77661 C-2.89771,8.16838 -2.43701,7.55412 -1.96729,6.93384 C-1.49756,6.31356 -1.0459,5.71436 -0.612305,5.13623 C0.399414,3.77523 1.44727,2.38411 2.53125,0.962891 M-5.81543,14.1694 L-5.81543,18.0537 L-5.7793,18.0537 L7.01172,18.0537 L7.01172,3.88965 C7.01172,3.50423 6.9786,3.12785 6.91235,2.7605 C6.84611,2.39315 6.69857,2.05892 6.46973,1.75781 C6.25293,1.49284 5.97892,1.30013 5.64771,1.17969 C5.31649,1.05924 4.97624,0.986979 4.62695,0.962891 C3.20573,2.86589 1.79053,4.76587 0.381348,6.66284 C-1.02783,8.55981 -2.44303,10.4538 -3.86426,12.3447 L3.50684,12.3447 L3.50684,14.1694 L-5.81543,14.1694"/>
</g>

<g fill="#ec1d24" fill-opacity="1" stroke="none" transform="matrix(1,0,0,1,0,0)"
font-family="MS Shell Dlg 2" font-size="7.8" font-weight="400" font-style="normal" 
>
</g>
</g>
</svg>
